mobile/apps/auth/assets/custom-icons/icons/enom.svg

<svg xmlns="http://www.w3.org/2000/svg" xml:space="preserve" style="fill-rule:evenodd;clip-rule:evenodd;stroke-linejoin:round;stroke-miterlimit:2" viewBox="0 0 24 24"><path d="M73.245 0C80.736 0 86.81 6.269 86.81 14.001 86.81 21.733 80.736 28 73.245 28S59.68 21.733 59.68 14.001 65.754 0 73.245 0Zm0 21.646c3.798 0 6.965-3.424 6.965-7.645 0-4.222-3.167-7.645-6.965-7.645s-6.965 3.423-6.965 7.645c0 4.221 3.167 7.645 6.965 7.645ZM123.068 0c6.089 0 10.118 5.123 10.118 13.632v13.263a.369.369 0 0 1-.368.369h-5.656a.367.367 0 0 1-.366-.369V13.632c0-4.088-1.64-7.185-5.325-7.185-3.405 0-5.885 3.534-5.885 8.843v11.605a.367.367 0 0 1-.365.369h-5.867a.367.367 0 0 1-.365-.369V13.632c0-4.088-1.694-7.185-5.499-7.185-3.401 0-5.88 2.922-6.041 8.284v12.164a.368.368 0 0 1-.367.369h-5.865a.368.368 0 0 1-.367-.369V1.131c0-.204.165-.369.367-.369h5.711c.191 0 .351.146.366.338l.155 1.867C99.402 1.146 101.961 0 105.139 0c3.694 0 6.651 1.77 8.465 4.952C115.586 1.989 118.682 0 123.068 0ZM45.017 0c6.288 0 10.632 5.123 10.632 13.632v13.263a.368.368 0 0 1-.367.369h-5.867a.368.368 0 0 1-.366-.369V13.632c0-4.088-1.876-7.185-5.681-7.185-3.405 0-6.233 2.931-6.408 8.31v12.138a.368.368 0 0 1-.367.369h-5.865a.368.368 0 0 1-.367-.369V1.131c0-.204.164-.369.367-.369h5.709a.37.37 0 0 1 .366.341l.157 2.095C39.012 1.244 41.706 0 45.017 0Z" style="fill:#49484d" transform="matrix(.1791 0 0 .1791 0 9.493)"/><path d="M20.839 19.015a.363.363 0 0 0-.496.029c-1.429 1.517-3.794 2.693-6.412 2.693-1.522 0-3.12-.396-4.204-1.24L26.082 8.544a.366.366 0 0 0 .119-.448C25.081 5.635 21.335 0 13.931 0 6.237 0 0 6.267 0 13.999 0 21.655 6.237 28 13.931 28c4.346 0 8.745-1.927 11.287-4.865a.367.367 0 0 0-.047-.52l-4.332-3.6ZM13.931 6.263c1.52 0 3.051.372 4.142 1.297L6.478 16.025c-1.319-4.786 2.638-9.762 7.453-9.762Z" style="fill:#ff4008" transform="matrix(.1791 0 0 .1791 0 9.493)"/></svg>

<?xml version="1.0" encoding="UTF-8" standalone="no"?>
<!DOCTYPE svg PUBLIC "-//W3C//DTD SVG 1.1//EN" "http://www.w3.org/Graphics/SVG/1.1/DTD/svg11.dtd">
<svg width="100%" height="100%" viewBox="0 0 24 24" version="1.1" xmlns="http://www.w3.org/2000/svg" xmlns:xlink="http://www.w3.org/1999/xlink" xml:space="preserve" xmlns:serif="http://www.serif.com/" style="fill-rule:evenodd;clip-rule:evenodd;stroke-linejoin:round;stroke-miterlimit:2;">
    <g transform="matrix(0.179104,0,0,0.179104,0,9.49254)">
        <path d="M73.245,0C80.736,0 86.81,6.269 86.81,14.001C86.81,21.733 80.736,28 73.245,28C65.754,28 59.68,21.733 59.68,14.001C59.68,6.269 65.754,0 73.245,0ZM73.245,21.646C77.043,21.646 80.21,18.222 80.21,14.001C80.21,9.779 77.043,6.356 73.245,6.356C69.447,6.356 66.28,9.779 66.28,14.001C66.28,18.222 69.447,21.646 73.245,21.646ZM123.068,0C129.157,0 133.186,5.123 133.186,13.632L133.186,26.895C133.186,27.099 133.021,27.264 132.818,27.264L127.162,27.264C126.959,27.264 126.796,27.099 126.796,26.895L126.796,13.632C126.796,9.544 125.156,6.447 121.471,6.447C118.066,6.447 115.586,9.981 115.586,15.29L115.586,26.895C115.586,27.099 115.423,27.264 115.221,27.264L109.354,27.264C109.153,27.264 108.989,27.099 108.989,26.895L108.989,13.632C108.989,9.544 107.295,6.447 103.49,6.447C100.089,6.447 97.61,9.369 97.449,14.731L97.449,26.895C97.449,27.099 97.285,27.264 97.082,27.264L91.217,27.264C91.015,27.264 90.85,27.099 90.85,26.895L90.85,1.131C90.85,0.927 91.015,0.762 91.217,0.762L96.928,0.762C97.119,0.762 97.279,0.908 97.294,1.1L97.449,2.967C99.402,1.146 101.961,0 105.139,0C108.833,0 111.79,1.77 113.604,4.952C115.586,1.989 118.682,0 123.068,0ZM45.017,0C51.305,0 55.649,5.123 55.649,13.632L55.649,26.895C55.649,27.099 55.484,27.264 55.282,27.264L49.415,27.264C49.214,27.264 49.049,27.099 49.049,26.895L49.049,13.632C49.049,9.544 47.173,6.447 43.368,6.447C39.963,6.447 37.135,9.378 36.96,14.757L36.96,26.895C36.96,27.099 36.795,27.264 36.593,27.264L30.728,27.264C30.525,27.264 30.361,27.099 30.361,26.895L30.361,1.131C30.361,0.927 30.525,0.762 30.728,0.762L36.437,0.762C36.628,0.762 36.788,0.911 36.803,1.103L36.96,3.198C39.012,1.244 41.706,0 45.017,0Z" style="fill:rgb(73,72,77);"/>
    </g>
    <g transform="matrix(0.179104,0,0,0.179104,0,9.49254)">
        <path d="M20.839,19.015C20.692,18.893 20.475,18.904 20.343,19.044C18.914,20.561 16.549,21.737 13.931,21.737C12.409,21.737 10.811,21.341 9.727,20.497L26.082,8.544C26.223,8.442 26.273,8.255 26.201,8.096C25.081,5.635 21.335,0 13.931,0C6.237,0 0,6.267 0,13.999C0,21.655 6.237,28 13.931,28C18.277,28 22.676,26.073 25.218,23.135C25.351,22.981 25.328,22.745 25.171,22.615L20.839,19.015ZM13.931,6.263C15.451,6.263 16.982,6.635 18.073,7.56L6.478,16.025C5.159,11.239 9.116,6.263 13.931,6.263Z" style="fill:rgb(255,64,8);"/>
    </g>
</svg>
